svgs/270A.svg

<svg xmlns="http://www.w3.org/2000/svg" xmlns:xlink="http://www.w3.org/1999/xlink" preserveAspectRatio="none" viewBox="0 0 72 72"><defs><path id="a" fill="#FAC036" d="M82.1 25.4q-.4 4.95-.5 7.85l-3.05-.95.15-6.25q.05-5.3-2.75-8.1-2.85-2.9-8.35-2.85-4.45 0-7.2 3.3-2.35 2.8-2.55 6.4-.25 3.65.8 14.2l-1.3.6-.4.25q-.5-3.25-1.65-9.9-.9-5-4-7.5-3-2.4-7.15-1.8-4.45.6-6.6 4.25-1.75 2.9-1.6 6.6.1 2.3 1.1 8.85 1.05 6.75 2.2 11.95l-2 1.4-.9-5.35v-.05l-.3-1.85-.1-.35-1.3-7.1q-.95-4.65-3.2-6.55-2.2-1.85-5.95-1.3-4.65.75-6.8 4.95-1.65 3.2-1.3 6.85.25 3.1 1.8 10 1.65 7.5 2.9 10.3.15.4.4.75l-2.05 1.45q.8 11.5 4.95 22.7 2.1 5.6 4 8.9 4.2 7.45 8.6 10.6 3.2 2.25 9.55 3.8 5.35 1.25 12.55 1.5 4.1.1 7.45-.1 13.3-.5 21.2-4.15 8.95-4.1 15.35-13.85 2.9-4.3 4-6.55 2.4-5.25 3.2-12.1.35-3.1.1-7.05-.25-4-1-7.05-1.95-8-11.25-12.8.9-5 1.7-12.3.75-7.1.65-9.75-.15-4.25-1.4-6.3-2-3.4-7.5-3.95-4.4-.5-7.05 1.35-3 2.1-3.45 7.05z"/><path id="b" fill="#E48C15" d="M82.45 23.25q-.05.35-.35.65-.65.65-1.85.65-.95 0-1.7-.85.15 1.15.15 2.35l-.45 17.45-1.5.1q-13.1.75-16.55 6.1-1.55-13.2-2.35-24.9-.6 1.45-2.25 1.55l-1.5-.2q1.55 5.55 2.8 18.5.65 6.5.95 11.85.5 5.7-2.35 8.55-1.45 1.45-3 1.75-4.6 1.05-8.15-2.55l-2.65-3.8q-.8-1.35-3.85-17.55l-1.7-8.65q.158.871-1.25 1.2-.9.2-1.4-.1.6 1.35 1.1 3.65.7 3.25 2.45 13.75l.35 2.45q.65 5.05.2 8.1-.25 1.5-.6 2-1.45 2.8-4.95 3.3l-3.15-.1q-3.45-.6-5.7-3.9l-1.55-3.15Q21.2 60 19.5 53.2l-1.55-6.45 2.45 18.7q.3.85.75 1.5.3.4.85 1.05 3.4 4.15 8.4 4.4 2.5.1 4.35-.6 1.8-.65 3.1-1.95l1-1.2q1.1-1.8 1.35-4.25 2.55 4.8 7.65 6.05 2.55.65 4.6.35 6.15-1.2 8-7.5l1.4 1.5q1 .85 2.6 1.5 5.1 2 13.8.85 3.4-.45 4.75-.45 1.2 0 3.5.4l2.9 1.55q2.65 2.15 1.4 5.45-.5 1.75-2.65 4.5l-.5 1.1q-.2 1.1 1.5 1.05 1.55 0 3.55-1.7 1.4-1.15 2.15-3.95.75-1.8.55-4.1-.4-4.55-5-6.85-2.6-1.3-5.15-1.4-1.55-.05-5.15.45-3.1.3-6.65.2-7.2-.2-9.7-2.25-.9-.8-1.55-2.25-1.3-2.85.1-6.05 0-.2.85-1.15 1.25-1.25 3.15-2.3 6-3.2 16.25-2.55l5.25.25q6.25.6 11.35 2.2l.5-2.9q-1.45-.5-3.95-1.15-5.05-1.2-10.45-1.65-2.15-.15-3.9-.15l1.1-20.2z"/></defs><use transform="scale(.5625)" xlink:href="#a"/><use transform="scale(.5625)" xlink:href="#b"/></svg>

<svg xmlns="http://www.w3.org/2000/svg" version="1.1" xmlns:xlink="http://www.w3.org/1999/xlink" preserveAspectRatio="none" x="0px" y="0px" width="72px" height="72px" viewBox="0 0 72 72">
<defs>
<g id="Layer0_0_MEMBER_0_FILL">
<path fill="#FAC036" stroke="none" d="
M 82.1 25.4
Q 81.7 30.35 81.6 33.25
L 78.55 32.3 78.7 26.05
Q 78.75 20.75 75.95 17.95 73.1 15.05 67.6 15.1 63.15 15.1 60.4 18.4 58.05 21.2 57.85 24.8 57.6 28.45 58.65 39
L 57.35 39.6 56.95 39.85
Q 56.45 36.6 55.3 29.95 54.4 24.95 51.3 22.45 48.3 20.05 44.15 20.65 39.7 21.25 37.55 24.9 35.8 27.8 35.95 31.5 36.05 33.8 37.05 40.35 38.1 47.1 39.25 52.3
L 37.25 53.7 36.35 48.35 36.35 48.3 36.05 46.45 35.95 46.1 34.65 39
Q 33.7 34.35 31.45 32.45 29.25 30.6 25.5 31.15 20.85 31.9 18.7 36.1 17.05 39.3 17.4 42.95 17.65 46.05 19.2 52.95 20.85 60.45 22.1 63.25 22.25 63.65 22.5 64
L 20.45 65.45
Q 21.25 76.95 25.4 88.15 27.5 93.75 29.4 97.05 33.6 104.5 38 107.65 41.2 109.9 47.55 111.45 52.9 112.7 60.1 112.95 64.2 113.05 67.55 112.85 80.85 112.35 88.75 108.7 97.7 104.6 104.1 94.85 107 90.55 108.1 88.3 110.5 83.05 111.3 76.2 111.65 73.1 111.4 69.15 111.15 65.15 110.4 62.1 108.45 54.1 99.15 49.3 100.05 44.3 100.85 37 101.6 29.9 101.5 27.25 101.35 23 100.1 20.95 98.1 17.55 92.6 17 88.2 16.5 85.55 18.35 82.55 20.45 82.1 25.4 Z"/>
</g>

<g id="Layer0_0_MEMBER_1_FILL">
<path fill="#E48C15" stroke="none" d="
M 82.45 23.25
Q 82.4 23.6 82.1 23.9 81.45 24.55 80.25 24.55 79.3 24.55 78.55 23.7 78.7 24.85 78.7 26.05
L 78.25 43.5 76.75 43.6
Q 63.65 44.35 60.2 49.7 58.65 36.5 57.85 24.8 57.25 26.25 55.6 26.35
L 54.1 26.15
Q 55.65 31.7 56.9 44.65 57.55 51.15 57.85 56.5 58.35 62.2 55.5 65.05 54.05 66.5 52.5 66.8 47.9 67.85 44.35 64.25
L 41.7 60.45
Q 40.9 59.1 37.85 42.9
L 36.15 34.25
Q 36.3083984375 35.1212890625 34.9 35.45 34 35.65 33.5 35.35 34.1 36.7 34.6 39 35.3 42.25 37.05 52.75
L 37.4 55.2
Q 38.05 60.25 37.6 63.3 37.35 64.8 37 65.3 35.55 68.1 32.05 68.6
L 28.9 68.5
Q 25.45 67.9 23.2 64.6
L 21.65 61.45
Q 21.2 60 19.5 53.2
L 17.95 46.75 20.4 65.45
Q 20.7 66.3 21.15 66.95 21.45 67.35 22 68 25.4 72.15 30.4 72.4 32.9 72.5 34.75 71.8 36.55 71.15 37.85 69.85
L 38.85 68.65
Q 39.95 66.85 40.2 64.4 42.75 69.2 47.85 70.45 50.4 71.1 52.45 70.8 58.6 69.6 60.45 63.3
L 61.85 64.8
Q 62.85 65.65 64.45 66.3 69.55 68.3 78.25 67.15 81.65 66.7 83 66.7 84.2 66.7 86.5 67.1
L 89.4 68.65
Q 92.05 70.8 90.8 74.1 90.3 75.85 88.15 78.6
L 87.65 79.7
Q 87.45 80.8 89.15 80.75 90.7 80.75 92.7 79.05 94.1 77.9 94.85 75.1 95.6 73.3 95.4 71 95 66.45 90.4 64.15 87.8 62.85 85.25 62.75 83.7 62.7 80.1 63.2 77 63.5 73.45 63.4 66.25 63.2 63.75 61.15 62.85 60.35 62.2 58.9 60.9 56.05 62.3 52.85 62.3 52.65 63.15 51.7 64.4 50.45 66.3 49.4 72.3 46.2 82.55 46.85
L 87.8 47.1
Q 94.05 47.7 99.15 49.3
L 99.65 46.4
Q 98.2 45.9 95.7 45.25 90.65 44.05 85.25 43.6 83.1 43.45 81.35 43.45
L 82.45 23.25 Z"/>
</g>
</defs>

<g id="Layer_1">
<g transform="matrix( 0.5625, 0, 0, 0.5625, 0,0) ">
<use xlink:href="#Layer0_0_MEMBER_0_FILL"/>
</g>

<g transform="matrix( 0.5625, 0, 0, 0.5625, 0,0) ">
<use xlink:href="#Layer0_0_MEMBER_1_FILL"/>
</g>
</g>
</svg>
